X:1
T:A Homeless Stranger
T:A Homeless Stranger
T:May Whittle Moody, 1897
T:Anonymous
T:Public Domain Courtesy of the Cyber Hymnal™
T:Public Domain Courtesy of the Cyber Hymnal™
C:May Whittle Moody, 1897
Z:Public Domain
Z:Courtesy of the Cyber Hymnal™
%%score ( 1 2 ) ( 3 4 )
L:1/8
Q:1/4=85
M:6/8
K:Eb
V:1 treble 
V:2 treble 
V:3 bass 
V:4 bass 
V:1
 [EG] | ([EG][EG])[EG] ([CE][CD])[CE] | ([EG][EG])[EG] E2 (E/[EF]/) | %3
w: 1.~A|home- * less stranger * a-|mongst * us came, To~this *|
w: 2.~And|then~from * this sad * and|sorrow- * ful land, This *|
w: 3.~And|I~must * a- bide * where|He * a- bode, And *|
 ([EG][EG])[EB] ([DB][DB])[DF] | [AB]3 [GB]2 ([GB]/[GB]/) | [Gc][Gc][Gc] [FA]2 ([FA]/[FA]/) | %6
w: land * of sin * and|mourn- ing; He *|walked in a path of *|
w: land * of tears~He * de-|part- ed; But~the *|light of His eyes, and~the *|
w: follow * His steps * for-|ev- er; His *|peo- ple, my peo- ple;~His *|
 ([DG][D^F])[DG] [CE]2 ([B,E]/[B,E]/) | ([B,D][B,G])[C=A] [DB]2 [CA] | [C=A]3 [B,G]2 ([DG]/[DG]/) | %9
w: sorrow * and shame, Thro’ *|insult, * and hate, and|scorn- ing; A *|
w: touch~of * His hand Had *|left * me brok- en-|heart- ed; And~I *|
w: God, * my God, In~the *|land * be- yond the|riv- er; And *|
 [EG]2 [EG] [CE][CD][CE] | [EG]2 [EG] (EE)[EF] | [EG]2 ([GB]/[GB]/) ([GB][Gc])[G_d] | %12
w: man of sor- rows, of|toils, of tears, * An|out- cast * man * and|
w: clave to Him as He|turned His face * From~the|land that~was * mine * no|
w: where He died would I|al- so die; * For|dear- er~a * grave * be-|
 [Gd]3 [Fc]2 ([Fc]/[Fc]/) | [Fe]2 [Fe] [Fc]2 [^Fc]/[Fd]/ | [Gc]2 [GB] ([EG]2 [EG]/[EG]/) | %15
w: lone- ly, But~He *|looked on me, and thro’|end- less years, * *|
w: long- er, The *|land I’d loved in the|gold- en days~ere~I * *|
w: side Him Than~a *|king- ly crown a- mong|liv- ing men,~The * *|
 ([CE][CF])[EG] ([CE][CF])[EG] | [DF]3 [B,E]2 |] %17
w: Him~must * I serve, * Him|on- ly.|
w: knew * the love~that * was|strong- er.|
w: place * that they * de-|nied Him.|
V:2
 x | x6 | x3 E2 E/ x/ | x6 | x6 | x6 | x6 | x6 | x6 | x6 | x3 EE x | x6 | x6 | x6 | x6 | x6 | x5 |] %17
V:3
 [E,B,] | ([E,B,][E,B,])[E,B,] ([E,C][E,C])[E,C] | ([E,B,][E,B,])[E,B,] [E,C]2 ([E,C]/[E,C]/) | %3
 ([E,B,][E,B,])[G,B,] [F,B,][F,B,][B,,B,] | [B,,D]3 [E,E]2 ([E,E]/[E,E]/) | %5
 [C,E][C,E][C,E] [F,C]2 ([F,C]/[F,C]/) | ([G,=B,][G,B,])[G,B,] [C,C]2 ([^C,G,]/[C,G,]/) | %7
 ([D,G,][D,G,])[D,G,] [D,G,]2 [D,^F,] | [D,^F,]3 [G,,G,]2 ([B,,G,]/[B,,G,]/) | %9
 [E,B,]2 [E,B,] [E,C][E,C][E,C] | [E,B,]2 [E,B,] ([E,C][E,C])[E,_C] | %11
 [E,B,]2 ([E,B,]/[E,B,]/) ([=E,C][E,C])[E,B,] | [F,B,]3 [F,A,]2 ([F,A,]/[F,A,]/) | %13
 [A,,C]2 [A,,C] [A,,E]2 [=A,,E]/[A,,E]/ | [B,,E]2 [B,,E] ([B,,B,]2 [B,,B,]/[B,,B,]/) | %15
 ([C,G,][C,A,])[C,G,] ([F,,A,][F,,A,])[F,,=A,] | (B,2 _A,) [E,G,]2 |] %17
V:4
 x | x6 | x6 | x6 | x6 | x6 | x6 | x6 | x6 | x6 | x6 | x6 | x6 | x6 | x6 | x6 | B,,3 x2 |] %17

